X:1
T:James Gibb editions
T:Ich bin der Auferstehung, SWV324  - Schütz
T:#
%%score [ 1 2 3 ] 4
L:1/8
Q:1/4=108
M:4/4
K:C
V:1 treble-8 nm="Tenor I"
V:2 treble-8 nm="Tenor II"
V:3 bass nm="Bass"
V:4 bass nm="Continuo"
V:1
"^John 11:25-26""^Ich bin der Auferstehung, SWV 324""^Heinrich Schütz\n(1585-1672)" z8 | z8 | z8 | %3
w: |||
 z8 | z AB^c d4 | ^c8 | z2 dA B2 B2 | z2 c2 _B2 G2 | (A8- | A4 G2 F2) | G8 | z8 | z8 | z8 | %14
w: |wer an mich glaü-|bet,|der wird le- ben,|ob er gleich|stür\-||be,||||
 z E^FG A4 | ^F8 | z2 GD E2 E2 | z2 cF A2 A2 | z2 c2 _B2 A2 | (A2 GF G4) | A8 | z ABc d4 | %22
w: wer an mich glaü-|bet,|der wird le- ben,|der wird le- ben,|ob er gleich|stür\- * * *|be,|wer an mich glaü-|
 B4 z2 AE | ^F2 F2 z2 GD | E2 E2 z2 G2 | F2 D2 (D4- | D4 ^C4) | D8 | z8 | z4 z dAB | c2 _BA B2 AG | %31
w: bet, der wird|le- ben, der wird|le- ben, ob|er gleich stür\-||be,||und wer da|le- bet und glaü- bet an|
 A4 z4 | z4 z2 ^cc | d=c B2 cB A2 | (A2 ^G2) A4 | z2 ee fe d2 | ed c2 B4 | A8 | z8 | z4 z ABc | %40
w: mich,|der wird|nim- mer- mehr, nim- mer- mehr|ster\- * ben,|der wird nim- mer- mehr,|nim- mer- mehr ster-|ben,||und wer da|
 d2 cB c2 BA | B4 z4 | z4 z2 GG | AG F2 GF E2 | (F2 G2) A4 | z4 z2 cc | dc _B2 cB A2 | G8 | F8 | %49
w: le- bet und glaü- bet an|mich,|der wird|nim- mer- mehr, nim- mer- mehr|ster\- * ben,|der wird|nim- mer- mehr. nim- mer- mehr|ster-|ben.|
 z4 F4 | F2 F2 E2 ^F2 | (GA_Bc dAB^F | G3) ^F F2 E2 | ^F4 F4 | z8 | z8 | z8 | z8 | z8 | z4 c4 | %60
w: Ich|bin die Auf- er-|ste\- * * * * * * *|* hung und das|Le- ben,||||||ich|
 c2 c2 c2 c2 | (defc dA_Bc | d3) c c2 _B2 | c4 c4 | z cde f4- | f4 e4 | z8 | z2 eB ^c2 c2 | %68
w: bin die Auf- er-|ste\- * * * * * * *|* hung und das|Le- ben,|wer an mich glaü\-|* bet,||der wird le- ben,|
 z2 e2 d2 c2 | (c4 B2 A2 | c4) B4 | z8 | z8 | z8 | z fcd e2 dc | d2 cB AdAB | c2 BA B2 AG | A4 z4 | %78
w: ob er gleich|stür\- * *|* be,||||und wer da le- bet und|glaü- bet an mich, und wer da|le- bet und glaü- bet an|mich,|
 z gde f2 ed | e2 dc d2 dd | ed c2 dc B2 | z8 | z2 AA _BA G2 | AG F2 GF E2 | F2 D2 z2 ee | %85
w: und wer da le- bet und|glaü- bet an mich, der wird|nim- mer- mehr, nim- mer- mehr,||der wird nim- mer- mehr,|nim- mer- mehr, nim- mer- mehr,|ster- ben, der wird|
 fe d2 ed c2 | z4 z2 AA | _BA G2 AG F2 | z2 GG AG F2 | GF E2 z2 ee | fe d2 z4 | z4 (c4- | %92
w: nim- mer- mehr, nim- mer- mehr,|der wird|nim- mer- mehr, nim- mer- mehr,|der wird nim- mer- mehr,|nim- mer- mehr, der wird|nim- mer- mehr|ster\-|
 cABc d4- | d2 ^cB c4) | d4 A2 A2 | dc _B2 cB A2 | z4 (_B4- | B4 A2 G2) | !fermata!A8 |] %99
w: ||ben, der wird|nim- mer- mehr, nim- mer- mehr.|ster\-||ben.|
V:2
 z8 | z8 | z8 | z8 | z8 | z E^FG A4 | ^F4 z2 GD | E2 E2 z2 G2 | F2 E2 (F4- | F4 E2 D2) | E8 | z8 | %12
w: |||||wer an mich glaü-|bet, der wir|le- ben, ob|er gleich stür\-||be,||
 z8 | z8 | z8 | z AB^c d4 | B4 z2 cG | A2 A2 z2 c2 | _B2 A2 (G2 FE | D6 E2 | F4) E4 | z ^FGA B4 | %22
w: |||wer an mich glaü|bet, der wird|le- ben, ob|er gleich stür\- * *||* be,|wer an mich glaü-|
 ^G4 z2 EE | A2 A2 z2 DD | G2 G2 z4 | z2 G2 F2 D2 | (F2 ED E4) | D8 | z8 | z8 | z AEF G2 FE | %31
w: bet, der wird|le- ben, der wird|le- ben,|ob er gleich|stür\- * * *|be,|||und wer da le- bet und|
 F2 ED E4 | z8 | z4 z2 ^cc | d=c B2 cB A2 | (B2 ^c2) d2 BB | cB A2 (A2 ^G2) | A8 | z8 | z4 z cde | %40
w: glaü- bet an mich,||der wird|nim- mer- mehr, nim- mer- mehr|ster\- * ben, der wird|nim- mer- mehr ster\- *|ben,||und wer da|
 f2 ed e2 dc | d4 dded | c2 dc B2 (c2- | c2 B2) c4 | z4 z2 cc | dc _B2 cB A2 | (F8- | F2 ED E4) | %48
w: le- bet und glaü- bet an|mich, der wird nim- mer-|mehr, nim- mer- mehr ster\-|* * ben,|der wird|nim- mer- mehr, nim- mer- mehr|ster\-||
 F8 | z4 A4 | A2 A2 A2 A2 | (_BcdA B^FGA | _B3) A A2 G2 | A4 A4 | z8 | z8 | z8 | z8 | z8 | z4 A4 | %60
w: ben.|Ich|bin die Auf- er-|ste\- * * * * * * *|* hung und das|Le- ben,||||||ich|
 A2 A2 G2 A2 | (_Bcde fcdA | _B3) A A2 G2 | A4 AA_Bc | d8- | d4 ^c4 | z2 dA B2 B2 | z4 z2 e2 | %68
w: bin die Auf- er-|ste\- * * * * * * *|* hung und das|Le- ben, wer an mich|glaü\-|* bet,|der wird le- ben,|ob|
 d2 c2 (A4- | A4 G2 F2 | A4) ^G4 | z8 | z8 | z8 | z dAB c2 BA | B2 AG A4 | z AEF G2 FE | %77
w: er gleich stür\-||* be,||||und wer da le- bet und|glaü- bet an mich,|und wer da le- bet und|
 F2 ED EcGA | B2 AG A2 AB | c4 z4 | z8 | eefe d2 ed | ^c2 d4 c2 | z8 | z2 dd ed c2 | dc B2 z2 cc | %86
w: glaü- bet an mich, und wer da|le- bet und glaü- bet an|mich,||der wird nim- mer- mehr, nim- mer-|mehr ster- ben,||der wird nim- mer- mehr.|nim- mer- mehr, der wird|
 dc B2 cB A2 | z4 (c4- | cABc d4- | d2 ^cB c4) | d4 z2 AA | _BA G2 AG F2 | z2 GG AG F2 | E8 | %94
w: nim- mer- mehr, nim- mer- mehr|ster\-|||ben, der wird|nim- mer- mehr, nim- mer- mehr,|der wird nim- mer- mehr|ster-|
 D4 ^F2 F2 | _Bc d2 AB c2 | z4 (G4- | G4 ^F2 E2) | !fermata!^F8 |] %99
w: ben, der wird|nim- mer- mehr, nim- mer- mehr.|ster\-||ben.|
V:3
 D,8 | D,2 D,2 ^C,2 D,2 | (G,,A,,_B,,G,, D,E,F,D, | A,3) G, F,2 E,2 | D,8 | A,,8 | z8 | z8 | z8 | %9
w: Ich|bin die Auf- er-|ste\- * * * * * * *|* hung und das|Le-|ben,||||
 z8 | z4 C,4 | C,2 C,2 B,,2 C,2 | (F,,G,,A,,F,, C,D,E,C, | G,3) F, E,2 D,2 | A,,8 | D,8 | z8 | z8 | %18
w: |ich|bin die Au- fer-|ste\- * * * * * * *|* hung und das|Le-|ben,|||
 z8 | z8 | z4 z A,,B,,^C, | D,4 B,,4 | z2 E,B,, ^C,2 C,2 | z2 D,A,, B,,2 B,,2 | z2 C,2 _B,,2 G,,2 | %25
w: ||wer an mich|glaü\-- bet,|der wird le- ben,|der wird le- ben,|ob er gleich|
 (_B,,8 | A,,8) | D,,8 | z D,A,,_B,, C,2 B,,A,, | _B,,2 A,,G,, D,4 | z8 | z4 z2 ^C,C, | %32
w: stür\-||be,|und wer da le- bet und|glaü- bet an mich,||der wird|
 D,C, B,,2 C,B,, A,,2 | (D,2 E,2) A,,4 | z8 | z4 D,D,G,F, | C,2 F,E, D,2 E,2 | A,,4 z A,E,F, | %38
w: nim- mer- mehr, nim- mer- mehr|ster\- * ben,||der wird nim- mer-|mehr, nim- mer- mehr ster-|ben, und wer da|
 G,2 F,E, F,2 E,D, | A,8 | z8 | z4 z2 G,G, | A,G, F,2 G,F, E,2 | (F,2 D,2) C,2 C,C, | %44
w: le- bet und glaü- bet an|mich,||der wird|nim- mer- mehr, nim- mer- mehr|ster\- * ben, der wird|
 D,C, B,,2 C,B,, A,,2 | (_B,,2 G,,2) F,,2 A,,A,, | _B,,C, D,2 A,,G,, F,,2 | (_B,,4 C,4) | F,,8 | %49
w: nim- mer- mehr, nim- mer- mehr|ster\- * ben, der wird|nim- mer- mehr. nim- mer- mehr|ster\- *|ben.|
 z8 | z8 | z8 | z8 | z4 z D,E,^F, | G,4 ^F,4 | z2 G,D, E,2 E,2 | z2 A,E, F,2 F,2 | %57
w: ||||wer an mich|glaü- bet,|der wird le- ben,|der wird le- ben,|
 z2 _B,2 A,2 F,2 | (A,2 G,F, G,4) | F,8 | z8 | z8 | z8 | z4 z F,G,A, | _B,8 | A,4 z2 A,E, | %66
w: ob er gleich|stiir\- * * *|be,||||wer an mich|glaü-|bet, der wird|
 ^F,2 F,2 z2 B,F, | ^G,2 G,2 z4 | z2 C,2 D,2 E,2 | F,8 | E,8 | z E,B,,C, D,2 C,B,, | %72
w: le- ben, der wird|le- ben,|ob er gleich|stür-|be,|und wer da le- bet und|
 C,2 B,,A,, E,2 E,E, | A,G, F,2 G,F, E,2 | D,4 C,4 | z G,D,E, F,2 E,D, | A,2 G,F, E,4 | %77
w: glaü- bet an mich, der wird|nim- mer- mehr, nim- mer- mehr|ster- ben,|und wer da le- bet und|glaü- bet an mich,|
 z D,A,,B,, C,2 E,F, | G,2 F,E, D,4 | z8 | G,G,A,G, F,2 G,F, | E,2 A,A, _B,A, G,2 | A,G, F,2 E,4 | %83
w: und wer da le- bet und|glaü- bet an mich,||der wird nim- mer- mehr, nim- mer-|mehr, der wird nim- mer- mehr,|nim- mer- mehr ster-|
 D,2 D,D, E,D, C,2 | D,C, B,,2 A,,4 | D,,4 z4 | z8 | z4 z2 F,F, | G,F, E,2 F,E, D,2 | z8 | %90
w: ben, der wird nim- mer- mehr,|nim- mer- mehr ster-|ben,||der wird|nim- mer- mehr, nim- mer- mehr,||
 z2 D,D, A,G, F,2 | z4 z2 F,F, | G,F, E,2 F,E, D,2 | A,,8 | D,,4 z4 | z8 | G,,8- | G,,8 | %98
w: der wird nim- mer- mehr,|der wird|nim- mer- mehr, nim- mer- mehr|ster-|ben,||ster\-||
 !fermata!D,8 |] %99
w: ben.|
V:4
 D,8 | D,2 D,2 ^C,2 D,2 | G,,4 D,4 | A,3 G, F,2 E,2 | D,8 | A,,8 | D,4 G,,4 | C,4 D,2 E,2 | %8
w: ||||||||
w: ||||||||
 F,2 C,2 F,,4 | C,8 | C,8 | C,2 C,2 B,,2 C,2 | F,,4 C,4 | G,3 F, E,2 D,2 | A,,8 | D,8 | G,,4 C,4 | %17
w: |||||||||
w: |||||||||
 F,,8 | G,,2 F,,2 G,,2 x-x | x4- x4 | A,,8 | D,4 B,,4 | E,4 ^C,4 | D,4 B,,4 | C,4 _B,,2 G,,2 | %25
w: |* * * 6|7||||||
w: ||||||||
 (x2- x2 _B,,4) | x4- x4 | D,,8 | D,2 A,,_B,, C,2 A,,2 | _B,,2 G,,2 D,4 | A,,4 G,,4 | D,4 ^C,4 | %32
w: 5 *|6||||||
w: |4||||||
 D,2 B,,2 C,2 A,,2 | D,2 E,2 x2- x2 | D,,2 E,,2 A,,4 | G,,2 A,,2 D,2 G,2 | x-x F,2 D,2 E,2 | A,,8 | %38
w: ||||6 * * *||
w: ||||||
 G,2 E,2 F,2 D,2 | A,4 A,,4 | D,4 C,4 | G,6 G,2 | A,2 F,2 G,2 E,2 | F,2 D,2 C,2 C,2 | %44
w: |||* 6|* 6 * 6|* 6 * *|
w: ||||||
 D,2 B,,2 A,,4 | _B,,2 G,,2 F,,2 A,,2 | _B,,2 D,2 A,,2 F,,2 | _B,,4 C,4 | F,,8 | D,8 | %50
w: * 6 *||* 6 6 *||||
w: ||||||
 D,4 ^C,2 D,2 | G,,8- | G,,8 | D,4 D,2 E,^F, | G,4 ^F,4 | G,,4 C,4 | A,,4 D,4 | _B,,4 D,4 | %58
w: ||||||||
w: ||||||||
 x2- x2 x2 x2 | F,,8- | F,,4 E,2 F,2 | _B,,8- | B,,8 | F,6 G,A, | _B,8 | A,4 A,,4 | D,4 B,,4 | %67
w: 6|||||||6 *|* 5|
w: 3|||||||4 *||
 E,4 A,,4 | B,,2 C,2 D,2 E,2 | F,8 | x4- x4 | E,2 B,,C, D,2 B,,2 | C,2 A,,2 E,4 | A,2 F,2 G,2 E,2 | %74
w: |* * * 6||6||||
w: |||4||||
 D,3- D, C,4 | G,,4 D,4 | A,,4 E,4 | D,2 A,,B,, C,4 | G,,4 D,3- D, | C,4 G,4 | x-x A,2 x-x G,2 | %81
w: * 6 *||||* * 6||6 * 6 *|
w: |||||||
 E,2 x-x _B,2 x-x | A,2 F,2 x2- x2 | D,4 E,2 C,2 | D,2 B,,2 A,,4 | D,4 C,4 | B,,4 A,,4 | G,4 F,4 | %88
w: * 6 * 6|* 6 7|* * 6|||||
w: |||||||
 E,4 D,4 | G,,4 A,,4 | D,4 A,4 | G,4 F,4 | E,4 D,4 | x4- x4 | D,,4 D,4 | G,,4 ^F,,4 | G,,8- | %97
w: 6 *||||6 *|4||||
w: |||||||||
 G,,8 | !fermata!D,8 |] %99
w: ||
w: ||

